X: 1
T:Paddy McFadden's -- Reel
M:2/4
L:1/16
R:reel
B:Ryan's Mammoth Collection
N:179
Z:Contributed by Ray Davies,  ray:davies99.freeserve.co.uk
K:G
uge"^Segno"|\
dBAB GFEF | .G2BG (dG).B.e | dBAB GFED | B"4"ee(^d e).f.g."0"e |
dBAB GFEF | .G2(BG) (dG).B.e | dBAB GFED | EGFA G2  ::
vdega bgab | gdBd gdBg | dega bgab | gafg efge |
 dega bagf | gfef g3a | bagf gfed | ((3efg) (dg) efge "^Segno":|
